X: 45
T: KALE AND KNOCKIT COARN
S: Kim Tyrrell, Baltasound
R: reel
B: Haand me doon da fiddle, 1979
Z: 2012 John Chambers <jc:trillian.mit.edu>
M: C
L: 1/8
K: G
{f}g |\
G2(uBG) dGBuG | {D}uGz vG,z u{f}vg2(fg) | (3AAA ^cA e(uAcA) | edef g2(fg |
G<G BG dGBG | {D}.Gz .G,z {f}g2fg | aefd e(udBG) | Ac BA G2 {f}g2 :|
|:\
dgBg dgBg | dBdg f2(ed) | e^cac ecac | edef g2(ufg) |
dgBg dgBg | dBdg f2(ued) | aefd edBG | A<A Bd e2 g2 :|
%%begintext align
Da name o' dis t\"un is an auld Shetland mael.  It translates
as, "Cabbage and Bruised Oats."  The "k" in knockit is pronounced,
which wis da wye wi aa words beginning wi "kn" in
Shetland ida auld days.  Dis is really no a Shetland t\"un ava.
He's Scottish an his real name is "Bob o' Fettercairn", but
he's been played dat lang aa ower Shetland an dey're dat mony
wyes o' him at maist Scots widna ken him noo.
%%endtext

%%sep 2 1 500
%%sep 1 1 500

